papirus/48x48/places/distributor-logo-kubuntu.svg

<?xml version="1.0" encoding="UTF-8" standalone="no"?>
<!-- Created with Inkscape (http://www.inkscape.org/) -->

<svg
   xmlns:dc="http://purl.org/dc/elements/1.1/"
   xmlns:cc="http://creativecommons.org/ns#"
   xmlns:rdf="http://www.w3.org/1999/02/22-rdf-syntax-ns#"
   xmlns:svg="http://www.w3.org/2000/svg"
   xmlns="http://www.w3.org/2000/svg"
   xmlns:xlink="http://www.w3.org/1999/xlink"
   xmlns:sodipodi="http://sodipodi.sourceforge.net/DTD/sodipodi-0.dtd"
   xmlns:inkscape="http://www.inkscape.org/namespaces/inkscape"
   width="48"
   height="48"
   id="svg5048"
   version="1.1"
   inkscape:version="0.91 r"
   sodipodi:docname="distributor-logo-kubuntu.svg">
  <defs
     id="defs5050">
    <style
       id="current-color-scheme"
       type="text/css">      .ColorScheme-Text {
        color:#31363b;
      }
      .ColorScheme-Background{
        color:#eff0f1;
      }
      .ColorScheme-ViewText {
        color:#31363b;
      }
      .ColorScheme-ViewBackground{
        color:#fcfcfc;
      }
      .ColorScheme-ViewHover {
        color:#3daee9;
      }
      .ColorScheme-ViewFocus{
        color:#3daee9;
      }
      .ColorScheme-ButtonText {
        color:#31363b;
      }
      .ColorScheme-ButtonBackground{
        color:#eff0f1;
      }
      .ColorScheme-ButtonHover {
        color:#3daee9;
      }
      .ColorScheme-ButtonFocus{
        color:#3daee9;
      }</style>
    <linearGradient
       x1="44.995"
       y1="17.5"
       x2="3.0052"
       gradientUnits="userSpaceOnUse"
       spreadMethod="reflect"
       y2="17.5"
       id="linearGradient2815">
      <stop
         offset="0"
         style="stop-color:#fff;stop-opacity:0"
         id="stop3277" />
      <stop
         offset=".245"
         style="stop-color:#fff"
         id="stop3283" />
      <stop
         offset=".77350"
         style="stop-color:#fff"
         id="stop3285" />
      <stop
         offset="1"
         style="stop-color:#fff;stop-opacity:0"
         id="stop3279" />
    </linearGradient>
    <linearGradient
       x1="26"
       y1="22"
       x2="26"
       gradientUnits="userSpaceOnUse"
       y2="8"
       id="linearGradient2813">
      <stop
         offset="0"
         style="stop-color:#fff"
         id="stop3829" />
      <stop
         offset=".30213"
         style="stop-color:#fff"
         id="stop4295" />
      <stop
         offset=".34361"
         style="stop-color:#fff;stop-opacity:.69020"
         id="stop4293" />
      <stop
         offset="1"
         style="stop-color:#fff;stop-opacity:0"
         id="stop3832" />
    </linearGradient>
    <linearGradient
       x1="23.452"
       y1="30.555"
       gradientTransform="matrix(1.2822 0 0 1.1747 -6.0702 -5.3032)"
       x2="43.007"
       gradientUnits="userSpaceOnUse"
       y2="45.934"
       id="linearGradient2811">
      <stop
         offset="0"
         style="stop-color:#fff;stop-opacity:0"
         id="stop4561" />
      <stop
         offset="1"
         style="stop-color:#fff;stop-opacity:0"
         id="stop4563" />
    </linearGradient>
    <linearGradient
       x1="15.464"
       y1="7.9757"
       x2="15.464"
       gradientUnits="userSpaceOnUse"
       y2="45.042"
       id="linearGradient2809">
      <stop
         offset="0"
         style="stop-color:#c9af8b"
         id="stop3297" />
      <stop
         offset=".23942"
         style="stop-color:#ad8757"
         id="stop3299" />
      <stop
         offset=".27582"
         style="stop-color:#c2a57f"
         id="stop3301" />
      <stop
         offset="1"
         style="stop-color:#9d7d53"
         id="stop3303" />
    </linearGradient>
    <linearGradient
       x1="24.823"
       y1="15.378"
       gradientTransform="matrix(1.2822 0 0 1.5573 -6.0702 -15.291)"
       x2="24.997"
       gradientUnits="userSpaceOnUse"
       y2="37.277"
       id="linearGradient2807">
      <stop
         offset="0"
         style="stop-color:#dac197"
         id="stop3201" />
      <stop
         offset=".23942"
         style="stop-color:#c1a581"
         id="stop3203" />
      <stop
         offset=".27582"
         style="stop-color:#dbc298"
         id="stop3205" />
      <stop
         offset="1"
         style="stop-color:#a68b60"
         id="stop3207" />
    </linearGradient>
    <radialGradient
       r="5"
       gradientTransform="matrix(.59382 0 0 1.5367 41.141 -103.94)"
       cx="5"
       cy="41.5"
       gradientUnits="userSpaceOnUse"
       xlink:href="#linearGradient3681"
       id="radialGradient2805" />
    <linearGradient
       x1="17.554"
       y1="46"
       gradientTransform="matrix(1.757 0 0 1.397 -17.394 -16.412)"
       x2="17.554"
       gradientUnits="userSpaceOnUse"
       y2="35"
       id="linearGradient2803">
      <stop
         offset="0"
         style="stop-opacity:0"
         id="stop3705" />
      <stop
         offset=".5"
         id="stop3711" />
      <stop
         offset="1"
         style="stop-opacity:0"
         id="stop3707" />
    </linearGradient>
    <linearGradient
       id="linearGradient3681">
      <stop
         offset="0"
         id="stop3683" />
      <stop
         offset="1"
         style="stop-opacity:0"
         id="stop3685" />
    </linearGradient>
    <radialGradient
       r="5"
       gradientTransform="matrix(.59382 0 0 1.5367 -6.6595 -103.94)"
       cx="5"
       cy="41.5"
       gradientUnits="userSpaceOnUse"
       xlink:href="#linearGradient3681"
       id="radialGradient2801" />
    <linearGradient
       x1="13.472"
       y1="25.411"
       gradientTransform="matrix(0 .71282 -.67402 0 50.746 15.046)"
       x2="57.726"
       gradientUnits="userSpaceOnUse"
       y2="25.411"
       id="linearGradient2789">
      <stop
         offset="0"
         style="stop-color:#fff"
         id="stop4224" />
      <stop
         offset="1"
         style="stop-color:#fff;stop-opacity:0"
         id="stop4226" />
    </linearGradient>
    <linearGradient
       x1="28.315"
       y1="20.71"
       gradientTransform="matrix(0 -.61460 -.58384 0 46.949 46.633)"
       x2=".81572"
       gradientUnits="userSpaceOnUse"
       y2="20.71"
       id="linearGradient2787">
      <stop
         offset="0"
         style="stop-color:#d7e866"
         id="stop2266" />
      <stop
         offset="1"
         style="stop-color:#8cab2a"
         id="stop2268" />
    </linearGradient>
    <radialGradient
       id="radialGradient2805-9"
       xlink:href="#linearGradient3681"
       gradientUnits="userSpaceOnUse"
       cy="41.5"
       cx="5"
       gradientTransform="matrix(.59382 0 0 1.5367 41.141 -103.94)"
       r="5" />
    <radialGradient
       id="radialGradient2801-3"
       xlink:href="#linearGradient3681"
       gradientUnits="userSpaceOnUse"
       cy="41.5"
       cx="5"
       gradientTransform="matrix(.59382 0 0 1.5367 -6.6595 -103.94)"
       r="5" />
    <clipPath
       clipPathUnits="userSpaceOnUse"
       id="clipPath6332">
      <rect
         style="opacity:1;fill:#002737;fill-opacity:1;stroke:none;stroke-width:0;stroke-linecap:butt;stroke-linejoin:miter;stroke-miterlimit:4;stroke-dasharray:none;stroke-dashoffset:0;stroke-opacity:1"
         id="rect6334"
         width="262.55066"
         height="36.242378"
         x="126.22997"
         y="674.26868"
         ry="9.1197138"
         rx="9.1197138" />
    </clipPath>
    <linearGradient
       id="linearGradient3924-1">
      <stop
         id="stop3926-3"
         style="stop-color:#ffffff;stop-opacity:1"
         offset="0" />
      <stop
         id="stop3928-91"
         style="stop-color:#ffffff;stop-opacity:0.23529412"
         offset="0.06316455" />
      <stop
         id="stop3930-6"
         style="stop-color:#ffffff;stop-opacity:0.15686275"
         offset="0.95056331" />
      <stop
         id="stop3932-6"
         style="stop-color:#ffffff;stop-opacity:0.39215687"
         offset="1" />
    </linearGradient>
    <linearGradient
       id="linearGradient27416-1-2-2">
      <stop
         id="stop27420-2-0-2"
         style="stop-color:#55c1ec;stop-opacity:1"
         offset="0" />
      <stop
         id="stop27422-3-5-1"
         style="stop-color:#3689e6;stop-opacity:1"
         offset="1" />
    </linearGradient>
    <linearGradient
       id="linearGradient4632-92-3-0-8-1-6">
      <stop
         id="stop4634-68-8-0-2-9-1"
         style="stop-color:#fafafa;stop-opacity:1"
         offset="0" />
      <stop
         id="stop4636-8-21-7-1-4-9"
         style="stop-color:#e1e1e1;stop-opacity:1"
         offset="1" />
    </linearGradient>
    <radialGradient
       cx="4.9929786"
       cy="43.5"
       r="2.5"
       fx="4.9929786"
       fy="43.5"
       id="radialGradient3013"
       xlink:href="#linearGradient3688-166-749"
       gradientUnits="userSpaceOnUse"
       gradientTransform="matrix(2.003784,0,0,1.4,27.98813,-17.4)" />
    <linearGradient
       id="linearGradient3688-166-749">
      <stop
         id="stop2883"
         style="stop-color:#181818;stop-opacity:1"
         offset="0" />
      <stop
         id="stop2885"
         style="stop-color:#181818;stop-opacity:0"
         offset="1" />
    </linearGradient>
    <radialGradient
       cx="4.9929786"
       cy="43.5"
       r="2.5"
       fx="4.9929786"
       fy="43.5"
       id="radialGradient3015"
       xlink:href="#linearGradient3688-166-749"
       gradientUnits="userSpaceOnUse"
       gradientTransform="matrix(2.003784,0,0,1.4,-20.01187,-104.4)" />
    <linearGradient
       id="linearGradient3702-501-757">
      <stop
         id="stop2895"
         style="stop-color:#181818;stop-opacity:0"
         offset="0" />
      <stop
         id="stop2897"
         style="stop-color:#181818;stop-opacity:1"
         offset="0.5" />
      <stop
         id="stop2899"
         style="stop-color:#181818;stop-opacity:0"
         offset="1" />
    </linearGradient>
    <linearGradient
       x1="25.058096"
       y1="47.027729"
       x2="25.058096"
       y2="39.999443"
       id="linearGradient4387"
       xlink:href="#linearGradient3702-501-757"
       gradientUnits="userSpaceOnUse" />
    <linearGradient
       id="linearGradient4011-9-9-70-61-7">
      <stop
         id="stop4013-5-4-3-8-3"
         style="stop-color:#ffffff;stop-opacity:1;"
         offset="0" />
      <stop
         offset="0.507761"
         style="stop-color:#ffffff;stop-opacity:0.23529412;"
         id="stop4015-1-5-70-9-5" />
      <stop
         id="stop4017-7-0-13-0-1"
         style="stop-color:#ffffff;stop-opacity:0.15686275;"
         offset="0.83456558" />
      <stop
         id="stop4019-1-12-7-0-7"
         style="stop-color:#ffffff;stop-opacity:0.39215687;"
         offset="1" />
    </linearGradient>
    <linearGradient
       id="linearGradient4215-8-4-07-7">
      <stop
         style="stop-color:#e9e9e9;stop-opacity:1;"
         offset="0"
         id="stop4217-1-2-1-2" />
      <stop
         style="stop-color:#ffffff;stop-opacity:1;"
         offset="1"
         id="stop4219-3-4-0-96" />
    </linearGradient>
    <radialGradient
       gradientTransform="matrix(2.003784,0,0,1.4,-20.01187,-104.4)"
       gradientUnits="userSpaceOnUse"
       xlink:href="#linearGradient3688-166-749"
       id="radialGradient3339-1-4"
       fy="43.5"
       fx="4.9929786"
       r="2.5"
       cy="43.5"
       cx="4.9929786" />
    <radialGradient
       gradientTransform="matrix(2.003784,0,0,1.4,27.98813,-17.4)"
       gradientUnits="userSpaceOnUse"
       xlink:href="#linearGradient3688-166-749"
       id="radialGradient3337-2-2"
       fy="43.5"
       fx="4.9929786"
       r="2.5"
       cy="43.5"
       cx="4.9929786" />
    <linearGradient
       inkscape:collect="always"
       xlink:href="#linearGradient4011-9-9-70-61-7"
       id="linearGradient3590"
       gradientUnits="userSpaceOnUse"
       gradientTransform="matrix(-0.29729724,0,0,0.29729724,52.326181,17.461356)"
       x1="71.204407"
       y1="6.2375584"
       x2="71.204407"
       y2="44.340794" />
    <linearGradient
       inkscape:collect="always"
       xlink:href="#linearGradient4215-8-4-07-7"
       id="linearGradient3593"
       gradientUnits="userSpaceOnUse"
       gradientTransform="matrix(-0.25490196,0,0,0.25490196,39.156863,16.333328)"
       x1="38.976662"
       y1="59.967686"
       x2="38.976662"
       y2="8.0928917" />
    <linearGradient
       inkscape:collect="always"
       xlink:href="#linearGradient27416-1-2-2"
       id="linearGradient3818"
       gradientUnits="userSpaceOnUse"
       gradientTransform="matrix(1.111111,0,0,1.25,-96.572559,-8.817797)"
       x1="30.271185"
       y1="10.028973"
       x2="30.271185"
       y2="55.052982" />
    <linearGradient
       inkscape:collect="always"
       xlink:href="#linearGradient3924-1"
       id="linearGradient3822"
       gradientUnits="userSpaceOnUse"
       gradientTransform="matrix(1.4324324,0,0,1.4362832,-95.395384,-3.2885759)"
       x1="23.99999"
       y1="4.999989"
       x2="23.99999"
       y2="43" />
    <radialGradient
       inkscape:collect="always"
       xlink:href="#linearGradient4632-92-3-0-8-1-6"
       id="radialGradient3826"
       gradientUnits="userSpaceOnUse"
       gradientTransform="matrix(1.0056172e-8,2.3103361,-2.310336,1.0056172e-8,-50.985718,-69.903761)"
       cx="31.999998"
       cy="4.3419166"
       fx="31.999998"
       fy="4.3419166"
       r="27.5" />
    <linearGradient
       inkscape:collect="always"
       xlink:href="#linearGradient27416-1-2-2"
       id="linearGradient3853"
       gradientUnits="userSpaceOnUse"
       gradientTransform="matrix(0.78787871,0,0,0.88636364,-1.212111,-3.363642)"
       x1="30.271185"
       y1="10.028973"
       x2="30.271185"
       y2="55.052982" />
    <linearGradient
       x1="8.9254236"
       y1="5.9997859"
       x2="8.9254236"
       y2="19"
       id="linearGradient2868"
       xlink:href="#linearGradient3678"
       gradientUnits="userSpaceOnUse"
       gradientTransform="translate(-1,-2)" />
    <linearGradient
       id="linearGradient3678">
      <stop
         id="stop3680"
         style="stop-color:#ffffff;stop-opacity:1"
         offset="0" />
      <stop
         id="stop3682"
         style="stop-color:#e6e6e6;stop-opacity:1"
         offset="1" />
    </linearGradient>
    <linearGradient
       x1="9"
       y1="3"
       x2="9"
       y2="21"
       id="linearGradient2393"
       xlink:href="#linearGradient3678"
       gradientUnits="userSpaceOnUse"
       gradientTransform="translate(-2,-1)" />
    <clipPath
       id="clipPath4473"
       clipPathUnits="userSpaceOnUse">
      <path
         style="fill:#fecd38;fill-opacity:1;stroke:none"
         d="m 142,240 c -1.108,0 -2,0.892 -2,2 l 0,36 c 0,1.108 0.892,2 2,2 l 22,0 16,-16 0,-22 c 0,-1.108 -0.892,-2 -2,-2 z"
         id="path4475"
         inkscape:connector-curvature="0"
         sodipodi:nodetypes="ssssccsss" />
    </clipPath>
    <radialGradient
       gradientTransform="matrix(1.1256295,0,0,1.1256295,-41.873391,-39.54673)"
       id="radialGradient29545"
       cx="375.21439"
       cy="783.16357"
       r="300.5752"
       fx="375.21439"
       fy="783.16357"
       gradientUnits="userSpaceOnUse">
      <stop
         offset="0.0112"
         style="stop-color:#eeeeef;stop-opacity:0.94117647;"
         id="stop29547" />
      <stop
         offset="0.29210001"
         style="stop-color:#6193cf;stop-opacity:1;"
         id="stop29549" />
      <stop
         offset="0.45750001"
         style="stop-color:#2c72c7;stop-opacity:1;"
         id="stop29551" />
      <stop
         offset="0.6767"
         style="stop-color:#0057ae;stop-opacity:1;"
         id="stop29553" />
      <stop
         offset="0.8653"
         style="stop-color:#004d9a;stop-opacity:1;"
         id="stop29555" />
      <stop
         offset="1"
         style="stop-color:#00438a;stop-opacity:1;"
         id="stop29557" />
    </radialGradient>
  </defs>
  <sodipodi:namedview
     id="base"
     pagecolor="#ffffff"
     bordercolor="#666666"
     borderopacity="1.0"
     inkscape:pageopacity="0.0"
     inkscape:pageshadow="2"
     inkscape:zoom="1"
     inkscape:cx="27.973346"
     inkscape:cy="23.310133"
     inkscape:document-units="px"
     inkscape:current-layer="layer1"
     showgrid="false"
     inkscape:window-width="1600"
     inkscape:window-height="840"
     inkscape:window-x="-4"
     inkscape:window-y="34"
     inkscape:window-maximized="1">
    <inkscape:grid
       type="xygrid"
       id="grid3011"
       empspacing="5"
       visible="true"
       enabled="true"
       snapvisiblegridlinesonly="true" />
  </sodipodi:namedview>
  <metadata
     id="metadata5053">
    <rdf:RDF>
      <cc:Work
         rdf:about="">
        <dc:format>image/svg+xml</dc:format>
        <dc:type
           rdf:resource="http://purl.org/dc/dcmitype/StillImage" />
        <dc:title></dc:title>
      </cc:Work>
    </rdf:RDF>
  </metadata>
  <g
     inkscape:label="Layer 1"
     inkscape:groupmode="layer"
     id="layer1"
     transform="translate(0,-1004.3622)">
    <path
       style="fill:#0079c1"
       inkscape:connector-curvature="0"
       d="m 44.003088,1028.3719 c 0.124027,7.8657 -4.949078,15.4513 -12.218662,18.428 -7.141556,3.0926 -16.011489,1.5003 -21.584704,-3.9489 -5.6448295,-5.2451 -7.7052785,-13.887 -5.0699043,-21.1246 2.5481553,-7.5016 9.9149603,-13.0293 17.8406873,-13.3265 7.705679,-0.4977 15.403357,3.9685 18.844106,10.87 1.440314,2.8006 2.192478,5.9493 2.188477,9.102 z"
       id="path4286" />
    <path
       id="path4354"
       d="m 21.832031,1013.3661 -2.732422,0.7324 2.330079,5.9629 0.841796,0.4863 c 4.190434,-0.8833 8.783906,1.6537 10.179688,5.7286 0.0218,0.06 0.03611,0.1216 0.05664,0.1816 l 1.046876,0.6035 6.330078,-0.9629 -0.732422,-2.7324 -5.330078,-0.7676 -2.097657,-2.3672 1.632813,-4.83 -2.597656,-1.5 -3.365235,3.83 -3.097656,-0.6328 -2.464844,-3.7324 z m -8.53125,3.9961 -2,2 2,5 -1,3 -4.9999998,1 0,3 4.9999998,1 1,3 -2,4 2,2 4,-5 0,-1.0352 c -1.151909,-1.2736 -1.950273,-2.8606 -2.177734,-4.5937 -0.467398,-2.6365 0.443723,-5.3448 2.177734,-7.3223 l 0,-1.0488 -4,-5 z m 20.353516,14.3047 -1.160156,0.6699 c -1.172925,3.252 -4.274249,5.7988 -7.794922,5.9863 -0.798463,0.081 -1.594449,0.031 -2.367188,-0.1191 l -0.802734,0.4629 -2.330078,5.9629 2.732422,0.7324 3.330078,-4.2324 3.097656,-0.6328 3.367187,3.83 2.597657,-1.5 -1.634766,-4.83 2.099609,-2.3672 4.462891,-0.2676 0.732422,-2.7324 -6.330078,-0.9629 z"
       style="fill:#000000;fill-opacity:1;opacity:0.2"
       inkscape:connector-curvature="0" />
    <path
       style="fill:#ffffff;fill-opacity:1"
       d="M 21.832031 8.0039062 L 19.099609 8.7363281 L 21.429688 14.699219 L 22.271484 15.185547 C 26.461918 14.302239 31.05539 16.839213 32.451172 20.914062 C 32.472976 20.973607 32.487286 21.035711 32.507812 21.095703 L 33.554688 21.699219 L 39.884766 20.736328 L 39.152344 18.003906 L 33.822266 17.236328 L 31.724609 14.869141 L 33.357422 10.039062 L 30.759766 8.5390625 L 27.394531 12.369141 L 24.296875 11.736328 L 21.832031 8.0039062 z M 13.300781 12 L 11.300781 14 L 13.300781 19 L 12.300781 22 L 7.3007812 23 L 7.3007812 26 L 12.300781 27 L 13.300781 30 L 11.300781 34 L 13.300781 36 L 17.300781 31 L 17.300781 29.964844 C 16.148872 28.691216 15.350508 27.104211 15.123047 25.371094 C 14.655649 22.734618 15.56677 20.026282 17.300781 18.048828 L 17.300781 17 L 13.300781 12 z M 33.654297 26.304688 L 32.494141 26.974609 C 31.321216 30.226554 28.219892 32.773373 24.699219 32.960938 C 23.900756 33.041591 23.10477 32.992347 22.332031 32.841797 L 21.529297 33.304688 L 19.199219 39.267578 L 21.931641 40 L 25.261719 35.767578 L 28.359375 35.134766 L 31.726562 38.964844 L 34.324219 37.464844 L 32.689453 32.634766 L 34.789062 30.267578 L 39.251953 30 L 39.984375 27.267578 L 33.654297 26.304688 z "
       transform="translate(0,1004.3622)"
       id="path4321" />
    <rect
       style="fill:#8b9299;fill-opacity:0;stroke:none"
       id="rect3024"
       width="20"
       height="60"
       x="864"
       y="543"
       transform="translate(0,52.36218)"
       ry="10" />
    <path
       style="opacity:0.3;fill:#000000;fill-opacity:1;stroke:none"
       d="M 43.978516 23.417969 A 20 20 0 0 1 24 43 A 20 20 0 0 1 4.0214844 23.582031 A 20 20 0 0 0 4 24 A 20 20 0 0 0 24 44 A 20 20 0 0 0 44 24 A 20 20 0 0 0 43.978516 23.417969 z "
       transform="translate(0,1004.3622)"
       id="path4255" />
    <path
       style="opacity:0.2;fill:#ffffff;fill-opacity:1;stroke:none"
       d="M 24 4 A 20 20 0 0 0 4 24 A 20 20 0 0 0 4.0214844 24.582031 A 20 20 0 0 1 24 5 A 20 20 0 0 1 43.978516 24.417969 A 20 20 0 0 0 44 24 A 20 20 0 0 0 24 4 z "
       transform="translate(0,1004.3622)"
       id="path4260" />
    <path
       sodipodi:nodetypes="ccccccccccccc"
       inkscape:connector-curvature="0"
       style="fill:#000000;fill-opacity:1"
       d="m 85.551724,1003.2415 -5,2 -3,-1 -1,-5.00003 -3,0 -1,5.00003 -3,1 -4,-2 -2,2 5,4 14,0 5,-4 z"
       id="path4323" />
  </g>
</svg>

<?xml version="1.0" encoding="UTF-8" standalone="no"?>
<!-- Created with Inkscape (http://www.inkscape.org/) -->
<svg id="svg5048" xmlns:rdf="http://www.w3.org/1999/02/22-rdf-syntax-ns#" xmlns="http://www.w3.org/2000/svg" height="48" width="48" version="1.1" xmlns:cc="http://creativecommons.org/ns#" xmlns:xlink="http://www.w3.org/1999/xlink" xmlns:dc="http://purl.org/dc/elements/1.1/">
 <defs id="defs5050">
  <style id="current-color-scheme" type="text/css">.ColorScheme-Text {
        color:#31363b;
      }
      .ColorScheme-Background{
        color:#eff0f1;
      }
      .ColorScheme-ViewText {
        color:#31363b;
      }
      .ColorScheme-ViewBackground{
        color:#fcfcfc;
      }
      .ColorScheme-ViewHover {
        color:#3daee9;
      }
      .ColorScheme-ViewFocus{
        color:#3daee9;
      }
      .ColorScheme-ButtonText {
        color:#31363b;
      }
      .ColorScheme-ButtonBackground{
        color:#eff0f1;
      }
      .ColorScheme-ButtonHover {
        color:#3daee9;
      }
      .ColorScheme-ButtonFocus{
        color:#3daee9;
      }</style>
 </defs>
 <metadata id="metadata5053">
  <rdf:RDF>
   <cc:Work rdf:about="">
    <dc:format>image/svg+xml</dc:format>
    <dc:type rdf:resource="http://purl.org/dc/dcmitype/StillImage"/>
    <dc:title/>
   </cc:Work>
  </rdf:RDF>
 </metadata>
 <g id="layer1" transform="translate(0 -1004.4)">
  <path id="path4286" fill="#0079c1" d="m44.003 1028.4c0.12403 7.8657-4.9491 15.451-12.219 18.428-7.1416 3.0926-16.011 1.5003-21.585-3.9489-5.6448-5.2451-7.7053-13.887-5.0699-21.125 2.5482-7.5016 9.915-13.029 17.841-13.326 7.7057-0.4977 15.403 3.9685 18.844 10.87 1.4403 2.8006 2.1925 5.9493 2.1885 9.102z"/>
  <path id="path4354" opacity=".2" d="m21.832 1013.4-2.7324 0.7324 2.3301 5.9629 0.8418 0.4863c4.1904-0.8833 8.7839 1.6537 10.18 5.7286 0.0218 0.06 0.03611 0.1216 0.05664 0.1816l1.0469 0.6035 6.3301-0.9629-0.73242-2.7324-5.3301-0.7676-2.0977-2.3672 1.6328-4.83-2.5977-1.5-3.3652 3.83-3.0977-0.6328-2.4648-3.7324zm-8.5312 3.9961-2 2 2 5-1 3-5 1v3l5 1 1 3-2 4 2 2 4-5v-1.0352c-1.1519-1.2736-1.9503-2.8606-2.1777-4.5937-0.4674-2.6365 0.44372-5.3448 2.1777-7.3223v-1.0488l-4-5zm20.354 14.305-1.1602 0.6699c-1.1729 3.252-4.2742 5.7988-7.7949 5.9863-0.79846 0.081-1.5944 0.031-2.3672-0.1191l-0.80273 0.4629-2.3301 5.9629 2.7324 0.7324 3.3301-4.2324 3.0977-0.6328 3.3672 3.83 2.5977-1.5-1.6348-4.83 2.0996-2.3672 4.4629-0.2676 0.73242-2.7324-6.3301-0.9629z"/>
  <path id="path4321" d="m21.832 8.0039l-2.732 0.7324 2.33 5.9627 0.841 0.487c4.191-0.884 8.784 1.653 10.18 5.728 0.022 0.06 0.036 0.122 0.057 0.182l1.047 0.603 6.33-0.963-0.733-2.732-5.33-0.768-2.097-2.367 1.632-4.83-2.597-1.4999-3.365 3.8299-3.098-0.633-2.465-3.7321zm-8.531 3.9961l-2 2 2 5-1 3-5.0002 1v3l5.0002 1 1 3-2 4 2 2 4-5v-1.035c-1.152-1.274-1.95-2.861-2.178-4.594-0.467-2.636 0.444-5.345 2.178-7.322v-1.049l-4-5zm20.353 14.305l-1.16 0.67c-1.173 3.252-4.274 5.798-7.795 5.986-0.798 0.081-1.594 0.031-2.367-0.119l-0.803 0.463-2.33 5.963 2.733 0.732 3.33-4.232 3.097-0.633 3.368 3.83 2.597-1.5-1.635-4.83 2.1-2.367 4.463-0.268 0.732-2.732-6.33-0.963z" transform="translate(0 1004.4)" fill="#fff"/>
  <rect id="rect3024" ry="10" fill-opacity="0" transform="translate(0 52.362)" height="60" width="20" y="543" x="864"/>
  <path id="path4255" opacity=".3" d="m43.979 23.418a20 20 0 0 1 -19.979 19.582 20 20 0 0 1 -19.978 -19.418 20 20 0 0 0 -0.022 0.418 20 20 0 0 0 20 20 20 20 0 0 0 20 -20 20 20 0 0 0 -0.021 -0.582z" transform="translate(0 1004.4)"/>
  <path id="path4260" opacity=".2" d="m24 4a20 20 0 0 0 -20 20 20 20 0 0 0 0.0215 0.582 20 20 0 0 1 19.978 -19.582 20 20 0 0 1 19.979 19.418 20 20 0 0 0 0.021 -0.418 20 20 0 0 0 -20 -20z" transform="translate(0 1004.4)" fill="#fff"/>
  <path id="path4323" d="m85.552 1003.2-5 2-3-1-1-5h-3l-1 5-3 1-4-2-2 2 5 4h14l5-4z"/>
 </g>
</svg>
